X:0595
T:Lovely Jeanie.
M:C
L:1/8
Q:1/4=92 "Affectuso"
I: :: ::
Z:Jack Campin * www.campin.me.uk * 2009
K:E Minor
 BA |G3        B     E2(GA)  |(TBAB)d   (TcB)(AG)|A3  B d2  ef/g/    |    e/d/c/B/ AG  A2
 BA |G3        B     E2 ef/g/|  dBTAG {ga}b3   a |g>age dB (c/B/A/B/)|({A}G2)      EF  E2:|
(Bc)|dB (c/B/)(A/G/) G>ABd   |  efga      g3   d |egdB  cBAG         |    A2       a2  a2
 g>a|bgab            g>age   |  dBAG      g3   e |dgfg  dB  c/B/A/B/ |    G2       E>F E2:|

